X: 4144
T: Blue Dress
R: waltz
M: 3/4
K: Amajor
|:c3B Ac|BE EF GB|A2 a2 ga|f3 g af|e2 A3 f|
e3 c c/B/A|1 FG A2 AF|G2 A2 B2:|2 FE A2 AB|A2 AB cd||
e3 A ea|g3 a bg|a2 f2 dc|B4 B/c/d|
c3 A ea|fg a2 af|g3 a fg|e3 d cd|
eA ce af|g3 a bg|a2 c2 c/d/e|f4 ed|
c3 B A2|F2 D2 dc|B3 A G/A/B|A6||

